X:1
T:Old Pipe Reel
L:1/8
M:4/4
I:linebreak $
K:G
V:1 treble 
V:1
 A2 A2 GAAB | e2 de gede | a2 ea gede | A2 A2 BGGB | A2 A2 GAAB | e2 de gede |$ a2 ea gedB | %7
 A2 A2 GAAe :: a2 ea gede | a3 e a gee^f | g2 ea edBe | A2 A2 BGGB |$ A2 A2 GAAB | e2 de gede | %14
 a2 ea gedB | A2 A2 GAA :| %16
